Yaru++/apps/symbolic/org.musicbrainz.Picard-symbolic.svg

<svg height="16" viewBox="0 0 16 16" width="16" xmlns="http://www.w3.org/2000/svg"><path d="m9.6242739.00000005-4.2945598 2.07021975-2.3297141 12.5240662 4.1026868-1.040367 3.4534722 2.446081 2.330671-12.5240661zm-.8506453 4.42239465c-.7223306-.1345259-1.1990261-.8289003-1.0644991-1.5512309.1345258-.7225696.8289002-1.199265 1.5512308-1.0647392.7228082.1347648 1.1995037.8291392 1.0649777 1.5514698-.134286.7220928-.8293777 1.1987883-1.5517094 1.0645003z" fill="#808080" stroke-width=".238945"/></svg>

<?xml version="1.0" encoding="UTF-8" standalone="no"?>
<svg
   xmlns:dc="http://purl.org/dc/elements/1.1/"
   xmlns:cc="http://creativecommons.org/ns#"
   xmlns:rdf="http://www.w3.org/1999/02/22-rdf-syntax-ns#"
   xmlns:svg="http://www.w3.org/2000/svg"
   xmlns="http://www.w3.org/2000/svg"
   xmlns:sodipodi="http://sodipodi.sourceforge.net/DTD/sodipodi-0.dtd"
   xmlns:inkscape="http://www.inkscape.org/namespaces/inkscape"
   width="16"
   height="16"
   version="1.1"
   viewBox="0 0 16 16"
   id="svg4"
   sodipodi:docname="org.musicbrainz.Picard-symbolic.svg"
   inkscape:version="0.92.4 (5da689c313, 2019-01-14)">
  <metadata
     id="metadata10">
    <rdf:RDF>
      <cc:Work
         rdf:about="">
        <dc:format>image/svg+xml</dc:format>
        <dc:type
           rdf:resource="http://purl.org/dc/dcmitype/StillImage" />
      </cc:Work>
    </rdf:RDF>
  </metadata>
  <defs
     id="defs8" />
  <sodipodi:namedview
     pagecolor="#ffffff"
     bordercolor="#666666"
     borderopacity="1"
     objecttolerance="10"
     gridtolerance="10"
     guidetolerance="10"
     inkscape:pageopacity="0"
     inkscape:pageshadow="2"
     inkscape:window-width="1920"
     inkscape:window-height="1016"
     id="namedview6"
     showgrid="false"
     inkscape:zoom="14.75"
     inkscape:cx="8"
     inkscape:cy="8"
     inkscape:window-x="0"
     inkscape:window-y="27"
     inkscape:window-maximized="1"
     inkscape:current-layer="svg4" />
  <path
     d="M 9.6242739,5.0000001e-8 5.3297141,2.0702198 3,14.594286 7.1026868,13.553919 10.556159,16 12.88683,3.4759339 Z M 8.7736286,4.4223947 C 8.051298,4.2878688 7.5746025,3.5934944 7.7091295,2.8711638 7.8436553,2.1485942 8.5380297,1.6718988 9.2603603,1.8064246 9.9831685,1.9411894 10.459864,2.6355638 10.325338,3.3578944 10.191052,4.0799872 9.4959603,4.5566827 8.7736286,4.4223947 Z"
     id="path8049"
     inkscape:connector-curvature="0"
     style="fill:#808080;stroke-width:0.23894505;fill-opacity:1" />
</svg>
